X: 6
T: Grande Chain, La
M: 4/4
L: 1/4
Q: 110
R: reel
P: AA BB
K: G
G/2A/2|:"G" B>  B/2c/2 B/2A/2 G/2 B/2| d> d/2d/2 B2| "D"c> c/2c/2 A2| "G
"d
/2e/2d/2c
/2 B G/2A/2|
B.>  B/2c/2 B/2A/2 G/2B/2| d> d/2d/2 B2|  "D"c>. c/2B/2 A>c/2A/2|1 "G"G
 B
  G  G
/2A/2   :|2  "G" G  B  G   e/2  f/2||:
"C"g> g/2f/2 e/2f/2 g/2e/2|  "G"d> d/2d/2 B2| "D"c> c/2c/2 A2|  "G"d/2e/
2d
/2c/2  B  e/
2f/2 | "C"g> g/2f/2 e/2f/2 g/2e/2| "G"d> d/2d/2 B2|     "D"c> c/2B/2 A B
|1
 "G"G B G e/
2f/2:|2  "G"G B G ||
